!!!COM: Mozart, Wolfgang Amadeus
!!!OTL: String Quartet No. 18 in A Major
!!!OMD: Menuetto
!!!OMV: 2
!!!SCT1: K<sup>1</sup> 464
!!!SCA: Chronologisch-thematisches Verzeichnis sämtlicher Tonwerke Wolfgang Amade Mozarts (L. von Köchel; 1862, 2/1905, 3/1937, 1947)
!!!SCT2: K<sup>6</sup> 464
!!!YOR: Breitkopf & Härtel Edition
!!!ENC: Frances Bennion
!!!CDT: 1756/1/27/-1791/12/5/
!!!OCY: Österreich
!!!YEC: Copyright (c) 1994, 2000 Center for Computer Assisted Research in the Humanities
!!!YEM: Rights to all derivative editions reserved.
!!!YEM: Refer to licensing agreement for further details.
!!!YEN: United States of America
**kern	**kern	**kern	**kern
*k[f#c#g#]	*k[f#c#g#]	*k[f#c#g#]	*k[f#c#g#]
*A:	*A:	*A:	*A:
*clefC	*clefF	*clefG	*clefG
*M3/4	*M3/4	*M3/4	*M3/4
2AA	2A	2A	2A
4C#	4c#	4c#	4c#
=2	=2	=2	=2
4E	4e	4e	4e
4D	4d	4d	4d
4r	4r	4r	4r
=3	=3	=3	=3
2BB	2B	2B	2B
4D	4d	4d	4d
=4	=4	=4	=4
4F#	4f#	4f#	4f#
4E	4e	4e	4e
4r	4r	4r	4r
=5	=5	=5	=5
2.r	2.c#	2.e	4ee
.	.	.	4ee
.	.	.	4ee
=6	=6	=6	=6
2.r	2.d	2.f#	4ee
.	.	.	8.dd
.	.	.	16cc#
.	.	.	4b
=7	=7	=7	=7
2.r	2.e	2.g#	4dd
.	.	.	4dd
.	.	.	4dd
=8	=8	=8	=8
2.r	4A	4a	4dd
.	2r	2r	8.cc#
.	.	.	16b
.	.	.	4a
=9	=9	=9	=9
2.r	2.r	4a	2a
.	.	4a	.
.	.	4a	4cc#
=10	=10	=10	=10
2.r	2.r	4a	4ff#
.	.	8.g#	4ee
.	.	16f#	.
.	.	4e	4r
=11	=11	=11	=11
4e	4g	2e	2ee
4e	4g	.	.
4e	4g	4g	4gg
=12	=12	=12	=12
4e	4g	4cc	4ccc
8.d#	8.f#	4b	4bb
16c#	16e	.	.
4B	4d#	4r	4r
=13	=13	=13	=13
2.r	2.r	2.r	2ee
.	.	.	4gg#
=14	=14	=14	=14
2.r	2D#	2.r	4ccc#
.	.	.	4bb
.	4F#	.	4r
=15	=15	=15	=15
2.r	4A	2e	2.r
.	4G#	.	.
.	4r	4g#	.
=16	=16	=16	=16
2DD#	2.r	4cc#	2.r
.	.	4b	.
4FF#	.	4r	.
=17	=17	=17	=17
4AA	2.r	4b	4bb
4GG#	.	4b	4bb
4r	.	4b	4bb
=18	=18	=18	=18
4A	4d#	4b	4bb
4A	4d#	8.a	8.aa
.	.	16g#	16gg#
4A	4d#	4f#	4ff#
=19	=19	=19	=19
4A	4d#	4b	4bb
8.G#	8.e	4b	4bb
16F#	16f#	.	.
4E	4g#	4b	4bb
=20	=20	=20	=20
4A	4d#	4b	4bb
4A	4d#	8.a	8.aa
.	.	16g#	16gg#
4A	4d#	4f#	4ff#
=21	=21	=21	=21
4A	4f#	4dd	4bb
8.G#	8.e#	4dd	4bb
16F#	16f#	.	.
4E#	4g#	4dd	4bb
=22	=22	=22	=22
4F#	4c#	4cc#	8aa#
.	.	.	8ff#
4.D#	4.f#	4cc	4.aa
.	.	4b	.
8E	8g#	.	8gg#
=23	=23	=23	=23
4AA	4a	4cc#	8gg#
.	.	.	8ff#
4BB	4g#	4b	4ee
4BB#	4f#	4a	4dd#
=24	=24	=24	=24
4C#	4e	4g#	8ee
.	.	.	8gg#
2r	2r	2r	8ff#
.	.	.	8ee
.	.	.	8dd#
.	.	.	8cc#
=25	=25	=25	=25
2.r	2.G#	2.B	4b
.	.	.	4b
.	.	.	4b
=26	=26	=26	=26
2.r	2.A	2.c#	4b
.	.	.	8.a
.	.	.	16g#
.	.	.	4f#
=27	=27	=27	=27
4BB	4.F#	4d#	4.a
4BB	.	4d#	.
.	8A	.	8f#
4BB	8F#	4d#	8a
.	8A	.	8f#
=28	=28	=28	=28
4EE	4G#	4e	4e
2r	2r	2r	2r
=29	=29	=29	=29
2.r	2.r	4g#	4b
.	.	4g#	4b
.	.	4g#	4b
=30	=30	=30	=30
2.BB	2.B	4g#	4b
.	.	8.f#	8.a
.	.	16e	16g#
.	.	4d#	4f#
=31	=31	=31	=31
2.r	2.r	4a	4cc#
.	.	4a	4cc#
.	.	4a	4cc#
=32	=32	=32	=32
2.E	2.e	4a	4cc#
.	.	8.g#	8.b
.	.	16f#	16a
.	.	4e	4g#
=33	=33	=33	=33
2.r	2.r	2.r	2.r
=34	=34	=34	=34
4A	4c#	2.r	2.r
4A	4c#	.	.
4A	4c#	.	.
=35	=35	=35	=35
4A	4c#	2.c#	2.cc#
8.G#	8.B	.	.
16F#	16A	.	.
4E#	4G#	.	.
=36	=36	=36	=36
4B	4d	2.r	2.r
4B	4d	.	.
4B	4d	.	.
=37	=37	=37	=37
4B	4d	2.f#	2.ff#
8.A	8.c#	.	.
16G#	16B	.	.
4F#	4A	.	.
=38	=38	=38	=38
4C#	[2.A	4g	4gg
4C#	.	4g	4gg
4C#	.	4g	4gg
=39	=39	=39	=39
4C#	2.A_	4g	4gg
8.D	.	8.f#	8.ff#
16E	.	16e	16ee
4F#	.	4d	4dd
=40	=40	=40	=40
4C#	2.A_	4g	4gg
4C#	.	4g	4gg
4C#	.	4g	4gg
=41	=41	=41	=41
4C#	2.A]	4g	4gg
8.D	.	8.f#	8.ff#
16E	.	16e	16ee
4F#	.	4d	4dd
=42	=42	=42	=42
4G 4GG	4e	4cc#	4bb
4G 4GG	4e	4cc#	4bb
4G 4GG	4e	4cc#	4bb
=43	=43	=43	=43
4G 4GG	4e	4cc#	4bb
2r	2r	2r	2r
=44	=44	=44	=44
2.r	2.r	2.r	4cc#
.	.	.	4dd
.	.	.	4b
=45	=45	=45	=45
2.r	4A	2d	2f#
.	4A	.	.
.	4A	4c#	4e
=46	=46	=46	=46
2.r	4A	4c	4d#
.	8.G	4B	4e
.	16F#	.	.
.	4E	4r	4r
=47	=47	=47	=47
2.r	4B	4d#	4a
.	4B	4e	4g
.	4B	4d	4f#
=48	=48	=48	=48
2.r	4B	2c#	4e#
.	8.A	.	4f#
.	16G#	.	.
.	4F#	4r	4r
=49	=49	=49	=49
2.r	4r	4r	4a
.	4F#	4c#	4a
.	4B	4d#	[4a
=50	=50	=50	=50
2.r	2E	4e	4a]
.	.	4B	8.g#
.	.	.	16e
.	4A	4c#	4g
=51	=51	=51	=51
4d	4D	4d	4g
4d	2r	4a	4f#
4d	.	4a	4ff#
=52	=52	=52	=52
4d	4b	4g#	4.ee
8.c#	4e	8.a	.
.	.	.	16ff#
16B	.	16dd	16gg#
4A	4e	4cc#	4aa
=53	=53	=53	=53
4r	4r	4r	8dd
.	.	.	8ee
4G#	4B	4e	8dd
.	.	.	8b
4A	4A	4e	8cc#
.	.	.	8a
=54	=54	=54	=54
4E	4G#	4e	4e
2r	2r	4d#	2r
.	.	4d	.
=55	=55	=55	=55
2.r	[2.e	4c#	2a
.	.	4c#	.
.	.	4c#	4cc#
=56	=56	=56	=56
2.r	2.e_	4c#	4ee
.	.	8.B	4dd
.	.	16A	.
.	.	4G#	4r
=57	=57	=57	=57
2D	2.e_	4d	2b
.	.	4d	.
4BB	.	4d	4dd
=58	=58	=58	=58
4GG#	2.e]	4d	4ff#
4AA	.	8.c#	4ee
.	.	16B	.
4r	.	4A	4r
=59	=59	=59	=59
2F#	2f#	2.r	4eee
.	.	.	4eee
4A#	4a#	.	4eee
=60	=60	=60	=60
4c	4cc	4aa	4eee
4B	4b	4aa	8.ddd#
.	.	.	16ccc#
4r	4r	4aa	4bb
=61	=61	=61	=61
2E	2e	4aa	4ddd
.	.	8.gg#	4ddd
.	.	16ff#	.
4G#	4g#	4ee	4ddd
=62	=62	=62	=62
4B-	4b-	4gg	4ddd
4A	4a	4gg	8.ccc#
.	.	.	16bb
4r	4r	4gg	4aa
=63	=63	=63	=63
4d#	4a	4ff#	4ccc
4d#	4a	4ff#	4ccc
4d#	4a	4ff#	4ccc
=64	=64	=64	=64
4d#	4a	4ff#	4ccc
2r	2r	2r	2r
=65	=65	=65	=65
2.r	2.r	4a	4cc#
.	.	4a	4cc#
.	.	4a	4cc#
=66	=66	=66	=66
2.r	4e	4a	4cc#
.	4e	8.b	8.dd
.	.	16b#	16dd#
.	4e	4cc#	4ee
=67	=67	=67	=67
2.E	4e	2a	2cc#
.	4d#	.	.
.	4d	4g#	4b
=68	=68	=68	=68
4A	4c#	4a	8a
.	.	.	8g#
2r	2r	2r	8a
.	.	.	8b
.	.	.	8cc#
.	.	.	8dd
=69	=69	=69	=69
4C#	4g	4A#	4ee
4C#	4g	4A#	4ee
4C#	4g	4A#	4ee
=70	=70	=70	=70
2D	4g	4A#	4ee
.	4f#	8.B	8.dd
.	.	16c#	16cc#
4r	4r	4d	4b
=71	=71	=71	=71
4E	4g#	4.B	4.dd
4E	4g#	.	.
.	.	8d	8b
4E	4g#	8B	8dd
.	.	8d	8b
=72	=72	=72	=72
4AA	4a	4c#	4a
2r	2r	2r	2r
=73	=73	=73	=73
4r	2.B	[2.e	[2.g#
4E	.	.	.
4D#	.	.	.
=74	=74	=74	=74
4C#	4c#	4e]	4g#]
4BB	4F#	2d#	4a
4AA	[4B	.	4f#
=75	=75	=75	=75
4GG#	4B]	4e	8b
.	.	.	8ee
4FF#	4d#	4f#	[2b
4EE	4e	4g#	.
=76	=76	=76	=76
4DD#	8f#	8a	8b]
.	8d#	8f#	8a#
4BB	4d#	4f#	8a
.	.	.	8g#
4r	4r	4r	8a
.	.	.	8f#
=77	=77	=77	=77
4r	4r	[2.e	[2.g#
4E	4G#	.	.
4D#	4F#	.	.
=78	=78	=78	=78
4C#	4E	4e]	8g#]
.	.	.	32a
.	.	.	32g#
.	.	.	32f#
.	.	.	32g#
4BB	4F#	4d#	4a
4AA	4D#	4c#	4f#
=79	=79	=79	=79
4GG#	2E	4B	4.b
4AA	.	4c#	.
.	.	.	8a#
4BB	4D#	8B	8a
.	.	8A	8f#
=80	=80	=80	=80
4E	4E	4G#	4e
4BB	2r	2r	2r
4EE	.	.	.
=81	=81	=81	=81
4BB	4B	8f#	12d#
.	.	.	12f#
.	.	8d#	.
.	.	.	12b
4r	4r	[2f#	12dd#
.	.	.	12ff#
.	.	.	12bb
4d#	4b	.	12ff#
.	.	.	12dd#
.	.	.	12b
=82	=82	=82	=82
4c#	4a#	8f#]	12ee
.	.	.	12cc#
.	.	8cc#	.
.	.	.	12b
4r	4r	[2f#	12a#
.	.	.	12g#
.	.	.	12f#
4AA#	4c#	.	12e
.	.	.	12f#
.	.	.	12e
=83	=83	=83	=83
4BB	4B	8f#]	12d#
.	.	.	12f#
.	.	8d#	.
.	.	.	12b
4r	[2b	[2f#	12dd#
.	.	.	12ff#
.	.	.	12bb
4d#	.	.	12ff#
.	.	.	12dd#
.	.	.	12b
=84	=84	=84	=84
4c#	12b]	8f#]	12ee
.	12a#	.	12cc#
.	.	8cc#	.
.	12b	.	12b
4r	4cc#	[2f#	12a#
.	.	.	12g#
.	.	.	12f#
4AA#	4c#	.	12e
.	.	.	12f#
.	.	.	12e
=85	=85	=85	=85
4BB	4B	4f#]	12d#
.	.	.	12f#
.	.	.	12b
2r	4r	4r	12dd#
.	.	.	12ff#
.	.	.	12bb
.	4d#	[4b	12aa
.	.	.	12gg#
.	.	.	12ff##
=86	=86	=86	=86
2.r	4e	4b]	12aa#
.	.	.	12gg#
.	.	.	12bb
.	2r	2r	12aa#
.	.	.	12gg#
.	.	.	12ff#
.	.	.	12ee
.	.	.	12dd#
.	.	.	12cc#
=87	=87	=87	=87
4r	2r	4r	12gg#
.	.	.	12ee
.	.	.	12cc#
2F#	.	4d#	4b
.	4A#	8f#	8dd#
.	.	8e	8cc#
=88	=88	=88	=88
2B	4B	4d#	[2.b
.	4c#	4e	.
4A	4d#	4f#	.
=89	=89	=89	=89
4G#	4e#	4g#	8b]
.	.	.	8dd
4F#	4f#	4a	4r
4E#	4g#	4b	8cc#
.	.	.	8g#
=90	=90	=90	=90
4F#	4d#	4f#	8b
.	.	.	8a
4E	4e	4g#	4r
4D#	4f#	4a	8cc#
.	.	.	8b
=91	=91	=91	=91
4E	4B	8d#	8a
.	.	8e	8g#
4C#	4r	8d#	8f#
.	.	8e	8e
4AA	4c#	8g#	8b
.	.	8f#	8a
=92	=92	=92	=92
2BB	2B	4e	4g#
.	.	4d#	4f#
4AA	4r	4r	4r
=93	=93	=93	=93
2.GG#	4r	8B	[2.bb
.	.	8c#	.
.	8B	8d#	.
.	8c#	8e	.
.	8d#	8f#	.
.	8e	8g#	.
=94	=94	=94	=94
2.FF#	8f#	8a	2.bb_
.	8g#	8b	.
.	8a	8cc#	.
.	8b	8dd#	.
.	8cc#	8ee	.
.	8dd#	8ff#	.
=95	=95	=95	=95
4EE	4ee	4gg#	4bb]
4r	4r	4r	4bb#
4AA#	4g#	4ee	4ccc#
=96	=96	=96	=96
2BB	4.B	4g#	4ee
.	.	8f#	8dd#
.	8D#	8a	8cc#
8C#	8E	8g#	8b
8D#	8F#	8f#	8a
=97	=97	=97	=97
4.E	4G#	[2.e	[2.g#
.	2B	.	.
8F#	.	.	.
8D#	.	.	.
8E	.	.	.
=98	=98	=98	=98
8C#	8e	4e]	8g#]
8D#	8f#	.	32a
.	.	.	32g#
.	.	.	32f#
.	.	.	32g#
8BB	8d#	4f#	4a
8C#	8e	.	.
8AA	8c#	4d#	4f#
8BB	8d#	.	.
=99	=99	=99	=99
8GG#	8B	8e	8b
8AA	8c#	8d#	8ee
8FF#	8A	8f#	[2b
8GG#	8B	8e	.
8EE	8G#	8g#	.
8FF#	8A	8f#	.
=100	=100	=100	=100
8DD#	8F#	8a	8b]
8FF#	8D#	8f#	8a#
4BB	4F#	4d#	8a
.	.	.	8g#
4r	4r	4r	8a
.	.	.	8f#
=101	=101	=101	=101
3e	3g#	12e	12g#
.	.	12g#	12b
.	.	12b	12ee
.	.	[2ee	[2gg#
12f#	12a	.	.
12e	12g#	.	.
12d#	12f#	.	.
12e	12g#	.	.
12d#	12f#	.	.
=102	=102	=102	=102
12c#	12e	8ee]	8gg#]
12d#	12f#	.	.
.	.	32ff#	32aa
.	.	32ee	32gg#
12c#	12e	.	.
.	.	32dd#	32ff#
.	.	32ee	32gg#
12B	12d#	4ff#	4aa
12c#	12e	.	.
12B	12d#	.	.
12A	12c#	4dd#	4ff#
12B	12d#	.	.
12A	12c#	.	.
=103	=103	=103	=103
4G#	4B	4ee	8bb
.	.	.	8aa#
4r	4r	8ff#	8aa
.	.	8ee	8gg#
4B	8B	8ff#	8aa
.	8a	8dd#	8ff#
=104	=104	=104	=104
4E	4g#	4ee	4ee
4e	2r	2r	2r
4r	.	.	.
==	==	==	==
*-	*-	*-	*-
!!!RWG1: This file contains only pitch and duration data.
!!!RWG2: Transposing instruments are not transposed.
!!!RWG3: Spines may have incompatible meters.
!!!RWG4: Durations of rests and tied notes may be interpreted.
!!!RWG: Key is interpreted using the Humdrum key tool.
!!!AFT: stage1
!!!END: 1997/04/15
!!!KEY: 2651463528
!!!EMD: Converted from MuseData to Humdrum Dec 16, 2000, by Andreas Kornstaedt using muse2kern.
!!!EMD: Manual editing by Craig Sapp, Nov 2001
